TV/Source/TJC Choice - Dark.svg

<svg height="667pt" viewBox="0 0 1334 667" width="1334pt" xmlns="http://www.w3.org/2000/svg"><path d="m162.73 34.67c13.03-.01 26.05-.01 39.07 0-.01 34.94-.01 69.87 0 104.8 122.87-.03 245.75.08 368.62-.05l.95-.76c.03.17.1.53.13.7-.03.24-.1.71-.13.94-4.82-.53-9.61.27-14.37.85-31.72 4.27-62.57 15.79-88.85 34.15-31.65.4-63.32.11-94.97.19-.02 110.83 0 221.66-.01 332.5.35 20.73-.49 41.78-6.47 61.78-5.18 17.77-14.99 34.75-30.14 45.81-15.85 11.78-36.07 16.11-55.53 15.89-14.06-.36-28.1-2.59-41.52-6.8 2.28-11.85 4.64-23.68 6.98-35.52 17.24 4.43 36.08 6.78 53.13.34 12.58-4.64 22.45-15.03 27.68-27.23 4.61-10.46 6.57-21.93 6.82-33.31.08-117.83-.26-235.64-.27-353.46-44.02.03-88.04-.02-132.06.02.02 79.83 0 159.67.01 239.5.09 14.35-.84 28.99 3.04 42.99 3.13 12.33 10.33 24.16 21.66 30.51 13.71 7.83 30.32 7.91 45.5 5.39 11.11-1.88 21.97-5.16 32.35-9.53 2.32 11.42 4.66 22.84 6.98 34.27-22.13 7.97-45.53 13.89-69.23 12.77-17.16-.8-34.49-6.37-47.59-17.77-13.71-11.71-22.27-28.37-26.94-45.57-3.34-12.37-5.01-25.21-4.84-38.03 0-84.85 0-169.7 0-254.55-25.46.02-50.92-.01-76.38.01-.04-12.01-.02-24.02-.01-36.03 25.47 0 50.94.01 76.41 0-.04-34.93-.01-69.86-.02-104.8z"/><path d="m682.91 254.61c4.75-.04 9.5-.02 14.26-.01.03 21.62-.06 43.24.05 64.87 4.72-12.42 16.72-20.96 29.59-23.2 6.97-1.14 14.16-.77 21.1.49 8.79 1.65 17.45 6.17 22.41 13.83 5.67 8.63 6.45 19.34 6.75 29.39.02 24.91 0 49.83.01 74.75-4.75.03-9.5.01-14.24.02.02-23.56-.01-47.13.01-70.69-.01-8.26-.56-16.96-4.7-24.3-3.34-6-9.55-10.08-16.22-11.39-9.66-1.89-20.3-.69-28.53 5-8.63 5.74-13.68 15.63-15.41 25.65-1.07 5.6-.8 11.31-.82 16.98 0 19.58.01 39.16 0 58.75-4.74-.01-9.48.02-14.21-.03-.05-53.37-.03-106.74-.05-160.11z"/><path d="m960.08 254.59c4.7-.01 9.41-.01 14.13.01 0 7.56 0 15.13-.01 22.69-4.71.01-9.41.01-14.12.01-.01-7.57.01-15.14 0-22.71z"/><path d="m571.42 303.4c11.44-7.39 25.74-9.08 38.99-6.98 10.14 1.72 20.03 6.48 26.79 14.38 5.86 6.85 8.68 15.75 9.81 24.57-4.72.03-9.44.01-14.16.01-2.04-8.67-6.13-17.37-13.58-22.65-7.31-4.99-16.67-5.86-25.24-4.74-11.92 1.52-22.16 9.87-27.65 20.34-7.76 14.68-8.84 32.56-3.76 48.29 2.83 8.72 7.87 16.99 15.35 22.46 10.25 7.86 25.13 9.55 36.68 3.61 11-5.54 18-17.33 19.07-29.43 4.73-.02 9.46-.02 14.19 0-1.78 13.63-7.65 27.39-18.93 35.79-10.94 8.44-25.6 10.13-38.92 8.14-14.33-2.13-27.47-10.88-34.99-23.26-9.42-15.33-11.51-34.34-8.4-51.83 2.69-15.46 11.12-30.42 24.75-38.7z"/><path d="m856.42 296.69c13.84-2.55 28.96-.9 40.9 6.96 13.35 8.3 21.61 23.03 24.34 38.27 3.02 16.94 1.22 35.27-7.4 50.4-7.28 12.93-20.51 22.35-35.19 24.73-12.85 2.03-26.7.78-38.08-5.92-13.66-7.6-22.49-21.94-25.66-36.98-3.63-17.2-2.1-35.94 6.29-51.57 7.04-13.19 20.09-23.05 34.8-25.89m3.85 11.62c-11.18 2.12-20.57 10.2-25.78 20.13-6.96 13.22-8.5 29.03-5.04 43.51 2.64 11.1 8.59 21.9 18.31 28.28 8.1 5.65 18.56 7.04 28.13 5.3 11.19-1.99 20.67-9.96 25.94-19.84 7.03-13.07 8.68-28.78 5.39-43.18-2.52-11.22-8.4-22.14-18.07-28.71-8.26-5.9-19.05-7.37-28.88-5.49z"/><path d="m1036.7 303.72c11.71-7.76 26.53-9.52 40.18-7.18 10.39 1.9 20.5 7.04 27.08 15.46 5.23 6.69 7.76 15.06 8.86 23.38-4.73.01-9.46 0-14.19.01-1.97-8.42-5.86-16.86-12.92-22.19-7.31-5.37-16.94-6.34-25.7-5.24-11.69 1.44-21.84 9.45-27.41 19.62-7.78 14.07-9.21 31.28-4.91 46.68 2.73 9.72 8.05 19.06 16.35 25.04 10.28 7.7 25.09 9.29 36.55 3.31 10.93-5.58 17.81-17.32 18.95-29.36 4.72 0 9.44-.01 14.16.01-1.77 13.34-7.37 26.8-18.23 35.24-11.23 9.07-26.65 10.83-40.5 8.54-14.43-2.38-27.47-11.55-34.77-24.19-8.99-15.38-10.79-34.17-7.61-51.48 2.81-14.99 10.97-29.43 24.11-37.65z"/><path d="m1167.98 303.1c11.43-7.55 25.98-8.86 39.19-6.38 15.64 3.1 28.33 15.42 33.91 30.09 4.2 10.73 5.62 22.39 5.51 33.85-29.73.19-59.47.02-89.21.09.22 10.99 2.77 22.41 9.61 31.26 5.56 7.18 13.68 12.78 22.86 13.83 9.32 1.08 19.48-.06 27.3-5.63 7.7-5.64 12.38-14.51 14.7-23.6 4.72-.01 9.45-.03 14.18.02-2.39 10.33-6.69 20.51-14.13 28.23-6.9 7.46-16.83 11.34-26.76 12.51-12.35 1.37-25.58.53-36.51-5.94-11.42-6.35-18.82-18.15-22.23-30.51-4.51-16.47-4.37-34.33 1.1-50.55 3.72-10.93 10.59-21.07 20.48-27.27m6.55 11.43c-10.6 8.08-15.46 21.41-17.19 34.21 24.98.11 49.96.03 74.94.03-.38-8.44-2.49-16.92-6.99-24.14-5.27-8.6-14.17-15.25-24.27-16.66-9.24-1.44-19.13.66-26.49 6.56z"/><path d="m960.08 298.92c4.7 0 9.41-.01 14.12.01.02 38.6 0 77.21.01 115.81-4.72.02-9.42-.01-14.13.03-.01-38.61.01-77.24 0-115.85z"/><path d="m571.5 139.36.05-.23c2.73.71 5.61.26 8.4.3 37.41-.61 75.61 8.01 107.33 28.35 11.25 7.24 21.78 15.78 30.37 26.08-9.3 8.6-18.59 17.21-27.87 25.83-22.77-24.09-54.57-38.89-87.31-42.93-57.64-7.48-118.11 21.59-148.73 70.91-14.3 22.82-21.84 49.49-23.29 76.29-2.13 35.07 5.11 71.4 24.45 101.11 19.29 30.12 49.86 52.34 83.84 63.07 37.01 12.12 78.65 8.56 113.31-9.07 13.98-7.15 27.04-16.34 37.74-27.89 9.27 8.63 18.56 17.24 27.86 25.84-10.52 12.54-23.78 22.56-37.94 30.64-33.39 18.88-72.67 25.83-110.71 23.29-43.38-3.25-86.11-20.17-118.48-49.5-22.5-20.3-39.27-46.7-48.64-75.5-8.98-27.3-11.76-56.38-10.24-84.99 1.66-31.13 9.43-62.26 25.02-89.4 12.66-22.31 30.53-41.52 51.49-56.26 26.28-18.36 57.13-29.88 88.85-34.15 4.76-.58 9.55-1.38 14.37-.85.03-.23.1-.7.13-.94z" fill="#492565"/></svg>

<?xml version="1.0" encoding="UTF-8" ?>
<!DOCTYPE svg PUBLIC "-//W3C//DTD SVG 1.1//EN" "http://www.w3.org/Graphics/SVG/1.1/DTD/svg11.dtd">
<svg width="1334pt" height="667pt" viewBox="0 0 1334 667" version="1.1" xmlns="http://www.w3.org/2000/svg">
<g id="#000000ff">
<path fill="#000000" opacity="1.00" d=" M 162.73 34.67 C 175.76 34.66 188.78 34.66 201.80 34.67 C 201.79 69.61 201.79 104.54 201.80 139.47 C 324.67 139.44 447.55 139.55 570.42 139.42 L 571.37 138.66 C 571.40 138.83 571.47 139.19 571.50 139.36 C 571.47 139.60 571.40 140.07 571.37 140.30 C 566.55 139.77 561.76 140.57 557.00 141.15 C 525.28 145.42 494.43 156.94 468.15 175.30 C 436.50 175.70 404.83 175.41 373.18 175.49 C 373.16 286.32 373.18 397.15 373.17 507.99 C 373.52 528.72 372.68 549.77 366.70 569.77 C 361.52 587.54 351.71 604.52 336.56 615.58 C 320.71 627.36 300.49 631.69 281.03 631.47 C 266.97 631.11 252.93 628.88 239.51 624.67 C 241.79 612.82 244.15 600.99 246.49 589.15 C 263.73 593.58 282.57 595.93 299.62 589.49 C 312.20 584.85 322.07 574.46 327.30 562.26 C 331.91 551.80 333.87 540.33 334.12 528.95 C 334.20 411.12 333.86 293.31 333.85 175.49 C 289.83 175.52 245.81 175.47 201.79 175.51 C 201.81 255.34 201.79 335.18 201.80 415.01 C 201.89 429.36 200.96 444.00 204.84 458.00 C 207.97 470.33 215.17 482.16 226.50 488.51 C 240.21 496.34 256.82 496.42 272.00 493.90 C 283.11 492.02 293.97 488.74 304.35 484.37 C 306.67 495.79 309.01 507.21 311.33 518.64 C 289.20 526.61 265.80 532.53 242.10 531.41 C 224.94 530.61 207.61 525.04 194.51 513.64 C 180.80 501.93 172.24 485.27 167.57 468.07 C 164.23 455.70 162.56 442.86 162.73 430.04 C 162.73 345.19 162.73 260.34 162.73 175.49 C 137.27 175.51 111.81 175.48 86.35 175.50 C 86.31 163.49 86.33 151.48 86.34 139.47 C 111.81 139.47 137.28 139.48 162.75 139.47 C 162.71 104.54 162.74 69.61 162.73 34.67 Z" />
<path fill="#000000" opacity="1.00" d=" M 682.91 254.61 C 687.66 254.57 692.41 254.59 697.17 254.60 C 697.20 276.22 697.11 297.84 697.22 319.47 C 701.94 307.05 713.94 298.51 726.81 296.27 C 733.78 295.13 740.97 295.50 747.91 296.76 C 756.70 298.41 765.36 302.93 770.32 310.59 C 775.99 319.22 776.77 329.93 777.07 339.98 C 777.09 364.89 777.07 389.81 777.08 414.73 C 772.33 414.76 767.58 414.74 762.84 414.75 C 762.86 391.19 762.83 367.62 762.85 344.06 C 762.84 335.80 762.29 327.10 758.15 319.76 C 754.81 313.76 748.60 309.68 741.93 308.37 C 732.27 306.48 721.63 307.68 713.40 313.37 C 704.77 319.11 699.72 329.00 697.99 339.02 C 696.92 344.62 697.19 350.33 697.17 356.00 C 697.17 375.58 697.18 395.16 697.17 414.75 C 692.43 414.74 687.69 414.77 682.96 414.72 C 682.91 361.35 682.93 307.98 682.91 254.61 Z" />
<path fill="#000000" opacity="1.00" d=" M 960.08 254.59 C 964.78 254.58 969.49 254.58 974.21 254.60 C 974.21 262.16 974.21 269.73 974.20 277.29 C 969.49 277.30 964.79 277.30 960.08 277.30 C 960.07 269.73 960.09 262.16 960.08 254.59 Z" />
<path fill="#000000" opacity="1.00" d=" M 571.42 303.40 C 582.86 296.01 597.16 294.32 610.41 296.42 C 620.55 298.14 630.44 302.90 637.20 310.80 C 643.06 317.65 645.88 326.55 647.01 335.37 C 642.29 335.40 637.57 335.38 632.85 335.38 C 630.81 326.71 626.72 318.01 619.27 312.73 C 611.96 307.74 602.60 306.87 594.03 307.99 C 582.11 309.51 571.87 317.86 566.38 328.33 C 558.62 343.01 557.54 360.89 562.62 376.62 C 565.45 385.34 570.49 393.61 577.97 399.08 C 588.22 406.94 603.10 408.63 614.65 402.69 C 625.65 397.15 632.65 385.36 633.72 373.26 C 638.45 373.24 643.18 373.24 647.91 373.26 C 646.13 386.89 640.26 400.65 628.98 409.05 C 618.04 417.49 603.38 419.18 590.06 417.19 C 575.73 415.06 562.59 406.31 555.07 393.93 C 545.65 378.60 543.56 359.59 546.67 342.10 C 549.36 326.64 557.79 311.68 571.42 303.40 Z" />
<path fill="#000000" opacity="1.00" d=" M 856.42 296.69 C 870.26 294.14 885.38 295.79 897.32 303.65 C 910.67 311.95 918.93 326.68 921.66 341.92 C 924.68 358.86 922.88 377.19 914.26 392.32 C 906.98 405.25 893.75 414.67 879.07 417.05 C 866.22 419.08 852.37 417.83 840.99 411.13 C 827.33 403.53 818.50 389.19 815.33 374.15 C 811.70 356.95 813.23 338.21 821.62 322.58 C 828.66 309.39 841.71 299.53 856.42 296.69 M 860.27 308.31 C 849.09 310.43 839.70 318.51 834.49 328.44 C 827.53 341.66 825.99 357.47 829.45 371.95 C 832.09 383.05 838.04 393.85 847.76 400.23 C 855.86 405.88 866.32 407.27 875.89 405.53 C 887.08 403.54 896.56 395.57 901.83 385.69 C 908.86 372.62 910.51 356.91 907.22 342.51 C 904.70 331.29 898.82 320.37 889.15 313.80 C 880.89 307.90 870.10 306.43 860.27 308.31 Z" />
<path fill="#000000" opacity="1.00" d=" M 1036.70 303.72 C 1048.41 295.96 1063.23 294.20 1076.88 296.54 C 1087.27 298.44 1097.38 303.58 1103.96 312.00 C 1109.19 318.69 1111.72 327.06 1112.82 335.38 C 1108.09 335.39 1103.36 335.38 1098.63 335.39 C 1096.66 326.97 1092.77 318.53 1085.71 313.20 C 1078.40 307.83 1068.77 306.86 1060.01 307.96 C 1048.32 309.40 1038.17 317.41 1032.60 327.58 C 1024.82 341.65 1023.39 358.86 1027.69 374.26 C 1030.42 383.98 1035.74 393.32 1044.04 399.30 C 1054.32 407.00 1069.13 408.59 1080.59 402.61 C 1091.52 397.03 1098.40 385.29 1099.54 373.25 C 1104.26 373.25 1108.98 373.24 1113.70 373.26 C 1111.93 386.60 1106.33 400.06 1095.47 408.50 C 1084.24 417.57 1068.82 419.33 1054.97 417.04 C 1040.54 414.66 1027.50 405.49 1020.20 392.85 C 1011.21 377.47 1009.41 358.68 1012.59 341.37 C 1015.40 326.38 1023.56 311.94 1036.70 303.72 Z" />
<path fill="#000000" opacity="1.00" d=" M 1167.98 303.10 C 1179.41 295.55 1193.96 294.24 1207.17 296.72 C 1222.81 299.82 1235.50 312.14 1241.08 326.81 C 1245.28 337.54 1246.70 349.20 1246.59 360.66 C 1216.86 360.85 1187.12 360.68 1157.38 360.75 C 1157.60 371.74 1160.15 383.16 1166.99 392.01 C 1172.55 399.19 1180.67 404.79 1189.85 405.84 C 1199.17 406.92 1209.33 405.78 1217.15 400.21 C 1224.85 394.57 1229.53 385.70 1231.85 376.61 C 1236.57 376.60 1241.30 376.58 1246.03 376.63 C 1243.64 386.96 1239.34 397.14 1231.90 404.86 C 1225.00 412.32 1215.07 416.20 1205.14 417.37 C 1192.79 418.74 1179.56 417.90 1168.63 411.43 C 1157.21 405.08 1149.81 393.28 1146.40 380.92 C 1141.89 364.45 1142.03 346.59 1147.50 330.37 C 1151.22 319.44 1158.09 309.30 1167.98 303.10 M 1174.53 314.53 C 1163.93 322.61 1159.07 335.94 1157.34 348.74 C 1182.32 348.85 1207.30 348.77 1232.28 348.77 C 1231.90 340.33 1229.79 331.85 1225.29 324.63 C 1220.02 316.03 1211.12 309.38 1201.02 307.97 C 1191.78 306.53 1181.89 308.63 1174.53 314.53 Z" />
<path fill="#000000" opacity="1.00" d=" M 960.08 298.92 C 964.78 298.92 969.49 298.91 974.20 298.93 C 974.22 337.53 974.20 376.14 974.21 414.74 C 969.49 414.76 964.79 414.73 960.08 414.77 C 960.07 376.16 960.09 337.53 960.08 298.92 Z" />
</g>
<g id="#492565ff">
<path fill="#492565" opacity="1.00" d=" M 571.50 139.36 L 571.55 139.13 C 574.28 139.84 577.16 139.39 579.95 139.43 C 617.36 138.82 655.56 147.44 687.28 167.78 C 698.53 175.02 709.06 183.56 717.65 193.86 C 708.35 202.46 699.06 211.07 689.78 219.69 C 667.01 195.60 635.21 180.80 602.47 176.76 C 544.83 169.28 484.36 198.35 453.74 247.67 C 439.44 270.49 431.90 297.16 430.45 323.96 C 428.32 359.03 435.56 395.36 454.90 425.07 C 474.19 455.19 504.76 477.41 538.74 488.14 C 575.75 500.26 617.39 496.70 652.05 479.07 C 666.03 471.92 679.09 462.73 689.79 451.18 C 699.06 459.81 708.35 468.42 717.65 477.02 C 707.13 489.56 693.87 499.58 679.71 507.66 C 646.32 526.54 607.04 533.49 569.00 530.95 C 525.62 527.70 482.89 510.78 450.52 481.45 C 428.02 461.15 411.25 434.75 401.88 405.95 C 392.90 378.65 390.12 349.57 391.64 320.96 C 393.30 289.83 401.07 258.70 416.66 231.56 C 429.32 209.25 447.19 190.04 468.15 175.30 C 494.43 156.94 525.28 145.42 557.00 141.15 C 561.76 140.57 566.55 139.77 571.37 140.30 C 571.40 140.07 571.47 139.60 571.50 139.36 Z" />
</g>
</svg>
